!!!!SEGMENT: pl-wtm--1586-fp-5522_stojowski-zygmunt--deux-caprices-etudes-op-2-no-1-fileuse.krn
!!!cenid: 18xx:4446
!!!COM: Stojowski, Zygmunt
!!!COM-rismID: pe41019736
!!!CDT: 1870-1946
!!!CNT: Polish
!!!OTL: Deux Caprices-Etudes Op. 2/No. 1. Fileuse
!!!PDT: 1898
!!!AGN: Secular; Etude
!!!YEC: Copyright 2022 Narodowy Instytut Fryderyka Chopina (https://polishscores.org)
!!!YEM: License CC-BY-4.0 (https://creativecommons.org/licenses/by/4.0)
!!!SMS-siglum: PL-Wtm
!!!SMS-shelfmark: 1586 fp 5522
!!!SMS-variant:
!!!SMS-altvar:
!!!SMS-shelfwork: W
!!!NIFC-rismSourceID: 1001214073
!!!NIFC-rismChildID: 1001214073
!!!NIFC-islandoraID: pl-wtm:84922
!!!URL-pdf-islandora: https://repozytorium.nifc.pl/islandora/object/pl-wtm%3A84922/datastream/PDF/view
!!!URL-scan: https://polish.musicsources.pl/pl/lokalizacje/galeria/druki-muzyczne/18813/2 @EN{Scan on Polish Music Sources Website} @PL{Skany w portalu Dziedzictwo Muzyki Polskiej w otwartym dostępie}
!!!IIIF:
!!!ONB-nifc:
!!!OMD: Vivace
!!!AIN: 1 piano
!!!key: G
**kern	**kern	**dynam
*part1	*part1	*part1
*staff2	*staff1	*
*ICklav	*ICklav	*
*Ipiano	*Ipiano	*
*I"PIANO.	*I"PIANO.	*
*clefF4	*clefG2	*
*k[f#]	*k[f#]	*
*G:	*G:	*
*M2/4	*M2/4	*
=1	=1	=1
*	*8va	*
2r	(32bbb\LLL	pp
.	32dddd\	.
.	32bbb\	.
.	32aaa\JJJ	.
.	32ggg\LLL	.
.	32fff#\	.
.	32ggg\	.
.	32aaa\JJJ	.
.	32bbb\LLL	.
.	32dddd\	.
.	32bbb\	.
.	32aaa\JJJ	.
.	32ggg\LLL	.
.	32fff#\	.
.	32ggg\	.
.	32aaa\JJJ	.
=2	=2	=2
2r	32bbb\LLL	.
.	32dddd\	.
.	32bbb\	.
.	32aaa\JJJ	.
.	32ggg\LLL	.
.	32fff#\	.
.	32ggg\	.
.	32aaa\JJJ	.
.	32bbb\LLL	.
.	32dddd\	.
.	32bbb\	.
.	32aaa\JJJ	.
.	32ggg\LLL	.
.	32fff#\	.
.	32ggg\	.
.	32aaa\JJJ)	.
!!LO:LB:g=original
=3	=3	=3
*^	*	*
!	!	!LO:TX:b:i:t=staccato il basso	!
8D/L	8GG\L	(32bbb\LLL	.
.	.	32dddd\	.
.	.	32bbb\	.
.	.	32aaa\JJJ	.
8E-X/	8B\	32ggg\LLL	.
.	.	32fff#\	.
.	.	32ggg\	.
.	.	32aaa\JJJ	.
8D/	8GG\	32bbb\LLL	.
.	.	32dddd\	.
.	.	32bbb\	.
.	.	32aaa\JJJ	.
8E-/J	8B\J	32ggg\LLL	.
.	.	32fff#\	.
.	.	32ggg\	.
.	.	32aaa\JJJ	.
=4	=4	=4	=4
8D/L	8GG\L	32bbb\LLL	.
.	.	32dddd\	.
.	.	32bbb\	.
.	.	32aaa\JJJ	.
8E-X/	8B\	32ggg\LLL	.
.	.	32fff#\	.
.	.	32ggg\	.
.	.	32aaa\JJJ	.
8D/	8GG\	32bbb\LLL	.
.	.	32dddd\	.
.	.	32bbb\	.
.	.	32aaa\JJJ	.
8E-/J	8B\J	32ggg\LLL	.
.	.	32fff#\	.
.	.	32ggg\	.
.	.	32aaa\JJJ)	.
!!LO:LB:g=original
=5	=5	=5	=5
(8D/L	[2GG\	(32bbb\LLL	.
.	.	32dddd\	.
.	.	32bbb\	.
.	.	32aaa\JJJ	.
8D#X/J	.	32ggg\LLL	<
.	.	32bbb\	.
.	.	32ggg\	.
.	.	32fff#\JJJ	.
4En/)	.	32eee\LLL	.
.	.	32ggg\	.
.	.	32eee\	.
.	.	32ddd\JJJ	.
.	.	32ccc\LLL	.
.	.	32eee\	.
.	.	32ccc\	.
.	.	32bb\JJJ	[
*	*	*X8va	*
=6	=6	=6	=6
(8E#X/L	2GG\]	32aa\LLL	.
.	.	32ccc\	.
.	.	32aa\	.
.	.	32gg\JJJ	.
8F#/	.	32ff#\LLL	>
.	.	32aa\	.
.	.	32ff#\	.
.	.	32ee\JJJ	.
8G/	.	32dd\LLL	.
.	.	32ff#\	.
.	.	32dd\	.
.	.	32cc\JJJ	]
8A/J	.	32b\LLL	.
.	.	32dd\	.
.	.	32b\	.
.	.	32a\JJJ)	.
!!LO:LB:g=original
=7	=7	=7	=7
8B/L)	8GG\L	(>32g/LLL	.
.	.	32a/	.
.	.	32g/	.
.	.	32f#/JJJ	.
8c'/	8D\	32e/LLL	.
.	.	32f#/	.
!	!	!	!LO:HP:t=cre_scen_do_:ext=ud
.	.	32g/	<
.	.	32a/JJJ	.
8B'/	8GG\	32g/LLL	.
.	.	32a/	.
.	.	32g/	.
.	.	32f#/JJJ	.
8c'/J	8D\J	32e/LLL	.
.	.	32f#/	.
.	.	32g/	.
.	.	32a/JJJ	.
=8	=8	=8	=8
8B'/L	8GG\L	32g/LLL	.
.	.	32a/	.
.	.	32g/	.
.	.	32f#/JJJ	.
8c'/	8D\	32e/LLL	.
.	.	32f#/	.
.	.	32g/	.
.	.	32a/JJJ	.
8B'/	8GG\	32g/LLL	.
.	.	32a/	.
.	.	32g/	.
.	.	32f#/JJJ	.
8c#X'/J	8AA\J	32e/LLL	.
.	.	32f#/	.
.	.	32g/	.
.	.	32a/JJJ)	.
!!LO:LB:g=original
=9	=9	=9	=9
8F#'/L	8DD\L	(>32d/LLL	.
.	.	32e/	.
.	.	32d/	.
.	.	32c#X/JJJ	.
8G'/	8AA\	32B/LLL	.
.	.	32c#/	.
.	.	32d/	.
.	.	32e/JJJ	.
8F#'/	8DD\	32d/LLL	.
.	.	32e/	.
.	.	32d/	.
.	.	32c#/JJJ	.
8G'/J	8AA\J	32B/LLL	.
.	.	32c#/	.
.	.	32d/	.
.	.	32e/JJJ	.
=10	=10	=10	=10
8F#'/L	8DD\L	32d/LLL	.
.	.	32e/	.
.	.	32d/	.
.	.	32c#X/JJJ	.
8G'/	8AA\	32B/LLL	.
.	.	32c#/	.
.	.	32d/	.
.	.	32e/JJJ	.
8F#'/	8DD\	32d/LLL	.
.	.	32e/	.
.	.	32d/	.
.	.	32c#/JJJ	.
8G'/J	8AA\J	32B/LLL	.
.	.	32c#/	.
.	.	32d/	.
.	.	32e/JJJ)	[[
!!LO:PB:g=original
=11	=11	=11	=11
16F#/	16DD\	(32d/LLL	f
.	.	32e/	.
16r	16ryy	32d/	.
.	.	32c#X/JJJ	.
*clefG2	*	*	*
(<32f#/LLL	8ryy	32d/)	.
32g/	.	16.r	.
32f#/	.	.	.
32e#X/JJJ	.	.	.
32f#/)	4ryy	(32a/LLL	.
16.r	.	32b/	.
.	.	32a/	.
.	.	32g/JJJ	.
(32dd\LLL	.	32f#/)	.
32ee\	.	16.r	.
32dd\	.	.	.
32cc#X\JJJ	.	.	.
*v	*v	*	*
=12	=12	=12
32dd\)	(32ff#\LLL	.
16.r	32gg\	.
.	32ff#\	.
.	32ee#X\JJJ	.
!	!	!LO:HP:t=dim._:ext=ud
(32aa\LLL	32ff#\)	>
32bb\	16.r	.
32aa\	.	.
32gg\JJJ	.	.
32ff#\)	(32ddd\LLL	.
16.r	32eee\	.
.	32ddd\	.
.	32ccc#X\JJJ	.
*8va	*	*
(32fff#\LLL	32ddd\)	.
32ggg\	16.r	.
32fff#\	.	.
32eee#X\JJJ	.	.
!!LO:LB:g=original
=13	=13	=13
*	*8va	*
32fff#\)	(32aaa\LLL	.
*X8va	*	*
16.r	32bbb\	.
.	32aaa\	.
.	32ggg\JJJ	.
*8va	*	*
(32dddd\LLL	32fff#\)	.
32eeee\	16.r	.
32dddd\	.	.
32cccc#X\JJJ)	.	.
*X8va	*	*
4r	(32dddd\LLL	.
.	32eeee\	.
.	32dddd\	.
.	32cccc#X\JJJ	.
.	32dddd\LLL	.
.	32eeee\	.
.	32dddd\	.
.	32cccc#\JJJ	.
*clefF4	*	*
=14	=14	=14
2r	32dddd\LLL	.
.	32eeee\	.
.	32dddd\	.
.	32cccc#X\JJJ	.
.	32dddd\LLL	.
.	32eeee\	.
.	32dddd\	]
!	!LO:TX:b:i:t=poco rit.	!
.	32cccc#\JJJ	.
.	32dddd\LLL	.
.	32eeee\	.
.	32dddd\	.
.	32cccc#\JJJ	.
.	32dddd\LLL	.
.	32eeee\	.
.	32dddd\	.
.	32ccccn\JJJ)	.
*	*X8va	*
!!LO:LB:g=original
=15	=15	=15
*	*8va	*
*^	*	*
!	!	!LO:TX:b:i:t=staccato il basso	!
!	!	!LO:TX:a:i:t=a tempo	!
8D/L	8GG\L	(32bbb\LLL	.
.	.	32dddd\	.
.	.	32bbb\	.
.	.	32aaa\JJJ	.
8E-X/	8B\	32ggg\LLL	.
.	.	32fff#\	.
.	.	32ggg\	.
.	.	32aaa\JJJ	.
8D/	8GG\	32bbb\LLL	.
.	.	32dddd\	.
.	.	32bbb\	.
.	.	32aaa\JJJ	.
8E-/J	8B\J	32ggg\LLL	.
.	.	32fff#\	.
.	.	32ggg\	.
.	.	32aaa\JJJ	.
=16	=16	=16	=16
8D/L	8GG\L	32bbb\LLL	.
.	.	32dddd\	.
.	.	32bbb\	.
.	.	32aaa\JJJ	.
8E-X/	8B\	32ggg\LLL	.
.	.	32fff#\	.
.	.	32ggg\	.
.	.	32aaa\JJJ	.
8D/	8GG\	32bbb\LLL	.
.	.	32dddd\	.
.	.	32bbb\	.
.	.	32aaa\JJJ	.
8E-/J	8B\J	32ggg\LLL	.
.	.	32fff#\	.
.	.	32ggg\	.
.	.	32aaa\JJJ)	.
*v	*v	*	*
*	*X8va	*
!!LO:LB:g=original
=17	=17	=17
*	*8va	*
*^	*	*
(8D/L	[2GG\	(32bbb\LLL	.
.	.	32dddd\	.
.	.	32bbb\	.
.	.	32aaa\JJJ	.
8D#X/J	.	32ggg\LLL	<
.	.	32bbb\	.
.	.	32ggg\	.
.	.	32fff#\JJJ	.
4En/)	.	32eee\LLL	.
.	.	32ggg\	.
.	.	32eee\	.
.	.	32ddd\JJJ	.
.	.	32ccc\LLL	.
.	.	32eee\	.
.	.	32ccc\	.
.	.	32bb\JJJ	[
*v	*v	*	*
*	*X8va	*
=18	=18	=18
*^	*	*
(8E#X/L	2GG\]	32aa\LLL	.
.	.	32ccc\	.
.	.	32aa\	.
.	.	32gg\JJJ	.
8F#/	.	32ff#\LLL	>
.	.	32aa\	.
.	.	32ff#\	.
.	.	32ee\JJJ	.
8G/	.	32dd\LLL	.
.	.	32ff#\	.
.	.	32dd\	.
.	.	32cc\JJJ	]
8A/J	.	32b\LLL	.
.	.	32dd\	.
.	.	32b\	.
.	.	32a\JJJ)	.
!!LO:LB:g=original
=19	=19	=19	=19
8B/L)	8GG\L	(>32g/LLL	.
.	.	32a/	.
.	.	32g/	.
.	.	32f#/JJJ	.
8c'/	8D\	32e/LLL	.
.	.	32f#/	.
!	!	!	!LO:HP:t=cre_scen_do_:ext=ud
.	.	32g/	<
.	.	32a/JJJ	.
8B'/	8GG\	32g/LLL	.
.	.	32a/	.
.	.	32g/	.
.	.	32f#/JJJ	.
8c'/J	8D\J	32e/LLL	.
.	.	32f#/	.
.	.	32g/	.
.	.	32a/JJJ	.
=20	=20	=20	=20
8B'/L	8GG\L	32g/LLL	.
.	.	32a/	.
.	.	32g/	.
.	.	32f#/JJJ	.
8c'/	8D\	32e/LLL	.
.	.	32f#/	.
.	.	32g/	.
.	.	32a/JJJ	.
8B'/	8GG\	32g/LLL	.
.	.	32a/	.
.	.	32g/	.
.	.	32f#/JJJ	.
8c#X'/J	8AA\J	32e/LLL	.
.	.	32f#/	.
.	.	32g/	.
.	.	32a/JJJ)	.
!!LO:PB:g=original
=21	=21	=21	=21
8F#'/L	8DD\L	(>32d/LLL	.
.	.	32e/	.
.	.	32d/	.
.	.	32c#X/JJJ	.
8G'/	8AA\	32B/LLL	.
.	.	32c#/	.
.	.	32d/	.
.	.	32e/JJJ	.
8F#'/	8DD\	32d/LLL	.
.	.	32e/	.
.	.	32d/	.
.	.	32c#/JJJ	.
8G'/J	8AA\J	32B/LLL	.
.	.	32c#/	.
.	.	32d/	.
.	.	32e/JJJ	.
=22	=22	=22	=22
8F#'/L	8DD\L	32d/LLL	.
.	.	32e/	.
.	.	32d/	.
.	.	32c#X/JJJ	.
8G'/	8AA\	32B/LLL	.
.	.	32c#/	.
.	.	32d/	.
.	.	32e/JJJ	.
8F#'/	8DD\	32d/LLL	.
.	.	32e/	.
.	.	32d/	.
.	.	32c#/JJJ	.
8G'/J	8AA\J	32B/LLL	.
.	.	32c#/	.
.	.	32d/	.
.	.	32e/JJJ)	[[
!!LO:LB:g=original
=23	=23	=23	=23
16F#/	16DD\	(32d/LLL	f
.	.	32e/	.
16r	16ryy	32d/	.
.	.	32c#X/JJJ	.
*clefG2	*	*	*
(32f#/LLL	8ryy	32d/)	.
32g/	.	16.r	.
32f#/	.	.	.
32e#X/JJJ	.	.	.
32f#/)	4ryy	(32a/LLL	.
16.r	.	32b/	.
.	.	32a/	.
.	.	32g/JJJ	.
(32dd\LLL	.	32f#/)	.
32ee\	.	16.r	.
32dd\	.	.	.
32cc#X\JJJ	.	.	.
*v	*v	*	*
=24	=24	=24
32dd\)	(32ff#\LLL	.
16.r	32gg\	.
.	32ff#\	.
.	32ee#X\JJJ	.
(32aa\LLL	32ff#\)	.
!	!	!LO:HP:t=dim._:ext=ud
32bb\	16.r	>
32aa\	.	.
32gg\JJJ	.	.
32ff#\)	(32ddd\LLL	.
16.r	32eee\	.
.	32ddd\	.
.	32ccc#X\JJJ	.
*8va	*	*
(32fff#\LLL	32ddd\)	.
32ggg\	16.r	.
32fff#\	.	.
32eee#X\JJJ	.	.
!!LO:LB:g=original
=25	=25	=25
*	*8va	*
32fff#\)	(32aaa\LLL	.
*X8va	*	*
16.r	32bbb\	.
.	32aaa\	.
.	32ggg\JJJ	.
*8va	*	*
(32dddd\LLL	32fff#\)	.
32eeee\	16.r	.
32dddd\	.	.
32cccc#X\JJJ)	.	.
*X8va	*	*
4r	(32dddd\LLL	.
.	32eeee\	.
.	32dddd\	.
.	32cccc#X\JJJ	.
.	32dddd\LLL	.
.	32eeee\	.
.	32dddd\	.
.	32cccc#\JJJ	.
*clefF4	*	*
=26	=26	=26
2r	32dddd\LLL	.
.	32eeee\	.
.	32dddd\	.
.	32cccc#X\JJJ	.
.	32dddd\LLL	.
.	32eeee\	]
!	!LO:TX:b:i:t=poco rit.	!
.	32dddd\	.
.	32cccc#\JJJ	.
.	32dddd\LLL	.
.	32eeee\	.
.	32dddd\	.
.	32cccc#\JJJ	.
.	32dddd\LLL	.
.	32eeee\	.
.	32dddd\	.
.	32cccc#\JJJ)	.
!!LO:LB:g=original
=27	=27	=27
*^	*	*
!	!	!LO:TX:a:i:t=a tempo	!
8Fn'/L	8BB-X\L	(32dddd\LLL	pp
.	.	32ffffn\	.
.	.	32dddd\	.
.	.	32ccccn\JJJ	.
8G-X/	8d'>\	32bbb-X\LLL	.
.	.	32aaa\	.
.	.	32bbb-\	.
.	.	32cccc\JJJ	.
8F'/	8BB-\	32dddd\LLL	.
.	.	32ffff\	.
.	.	32dddd\	.
.	.	32cccc\JJJ	.
8G-/J	8d'>\J	32bbb-\LLL	.
.	.	32aaa\	.
.	.	32bbb-\	.
.	.	32cccc\JJJ	.
=28	=28	=28	=28
8Fn/L	8BB-X\L	32dddd\LLL	.
.	.	32ffffn\	.
.	.	32dddd\	.
.	.	32ccccn\JJJ	.
8G-X/	8d\	32bbb-X\LLL	.
.	.	32aaa\	.
.	.	32bbb-\	.
.	.	32cccc\JJJ	.
8F/	8BB-\	32dddd\LLL	.
.	.	32ffff\	.
.	.	32dddd\	.
.	.	32cccc\JJJ	.
8G-/J	8d\J	32bbb-\LLL	.
.	.	32aaa\	.
.	.	32bbb-\	.
.	.	32cccc\JJJ)	.
*v	*v	*	*
*	*X8va	*
!!LO:LB:g=original
=29	=29	=29
*	*8va	*
*^	*	*
(8Fn/L	[2BB-X\	(32dddd\LLL	.
.	.	32ffffn\	.
.	.	32dddd\	.
.	.	32cccc\JJJ	.
8F#X/J	.	32bbb-X\LLL	.
.	.	32dddd\	.
.	.	32bbb-\	.
.	.	32aaa\JJJ	.
4Gn/)	.	32ggg\LLL	.
.	.	32bbb-\	.
.	.	32ggg\	.
.	.	32fffn\JJJ	.
.	.	32eee-X\LLL	.
.	.	32ggg\	.
.	.	32eee-\	.
.	.	32ddd\JJJ	.
*v	*v	*	*
*	*X8va	*
=30	=30	=30
*^	*	*
(8G#X/L	2BB-X\]	32ccc\LLL	.
.	.	32eee-X\	.
.	.	32ccc\	.
.	.	32bb-X\JJJ	.
8A/	.	32aa\LLL	.
.	.	32ccc\	.
.	.	32aa\	.
.	.	32gg\JJJ	.
8B-X/	.	32ffn\LLL	.
.	.	32aa\	.
.	.	32ff\	.
.	.	32ee-X\JJJ	.
8c/J	.	32dd\LLL	.
.	.	32ff\	.
.	.	32dd\	.
.	.	32cc\JJJ)	.
*v	*v	*	*
!!LO:PB:g=original
=31	=31	=31
8BB-X\L) 8Fn 8d	(>32b-X/LLL	.
.	32cc/	.
.	32b-/	.
.	32a/JJJ	.
8F'\ 8e-X	32g/LLL	.
.	32a/	.
.	32b-/	.
.	32cc/JJJ	.
8BB-'\ 8F 8d	32b-/LLL	.
.	32cc/	.
.	32b-/	.
.	32a/JJJ	.
8Fny'\J 8e-	32g/LLL	.
.	32a/	.
.	32b-/	.
.	32cc/JJJ	.
=32	=32	=32
8BB-X'\L 8Fn 8d	32b-X/LLL	.
.	32cc/	.
.	32b-/	.
.	32a/JJJ	.
!	!	!LO:HP:t=cresc._:ext=ud
8F'\ 8e-X	32g/LLL	<
.	32a/	.
.	32b-/	.
.	32cc/JJJ	.
8BB-'\ 8F 8d	32b-/LLL	.
.	32cc/	.
.	32b-/	.
.	32a/JJJ	.
8Fny'\J 8e-	32g/LLL	.
.	32a/	.
.	32b-/	.
.	32cc/JJJ)	.
!!LO:LB:g=original
=33	=33	=33
8D-X\L 8A-X 8fn	(32dd-X\LLL	.
.	32ee-X\	.
.	32dd-\	.
.	32cc\JJJ	.
8An\ 8g-X	32b-X\LLL	.
.	32cc\	.
.	32dd-\	.
.	32ee-\JJJ	.
8D-\ 8A 8f	32dd-\LLL	.
.	32ee-\	.
.	32dd-\	.
.	32cc\JJJ	.
8A\J 8g-	32b-\LLL	.
.	32cc\	.
.	32dd-\	.
.	32ee-\JJJ	.
=34	=34	=34
8D-X\L 8A-X 8fn	32dd-X\LLL	.
.	32ee-X\	.
.	32dd-\	.
.	32cc\JJJ	.
8A-\ 8g-X	32b-X\LLL	.
.	32cc\	.
.	32dd-\	.
.	32ee-\JJJ	.
8D-\ 8A- 8f	32dd-\LLL	.
.	32ee-\	.
.	32dd-\	.
.	32cc\JJJ	.
8A-\J 8g-	32b-\LLL	.
.	32cc\	.
.	32dd-\	.
.	32ee-\JJJ)	[[
!!LO:LB:g=original
=35	=35	=35
!LO:N:n=3:acc=n#	!	!
8En\L 8Bn 8g#X	(32een\LLL	f
.	32ff#X\	.
.	32ee\	.
.	32dd#X\JJJ	.
8B\ 8an	32cc#X\LLL	.
.	32dd#\	.
.	32ee\	.
.	32ff#\JJJ	.
8E\ 8B 8g#	32ee\LLL	.
.	32ff#\	.
.	32ee\	.
.	32dd#\JJJ	.
8B\J 8a	32cc#\LLL	.
.	32dd#\	.
.	32ee\	.
.	32ff#\JJJ	.
=36	=36	=36
!	!	!LO:HP:t=dim._:ext=ud
8E-X\L 8B-X 8gn	32ee-X\LLL	>
.	32ffn\	.
.	32ee-\	.
.	32ddn\JJJ	.
8B-\ 8a-X	32ccn\LLL	.
.	32dd\	.
.	32ee-\	.
.	32ff\JJJ	.
8E-\ 8B- 8g	32ee-\LLL	.
.	32ff\	.
.	32ee-\	.
.	32dd\JJJ	.
8B-\J 8a-	32cc\LLL	.
.	32dd\	.
.	32ee-\	.
.	32ff\JJJ)	.
!!LO:LB:g=original
=37	=37	=37
8D\L 8An 8f#X	(32dd\LLL	.
.	32een\	.
.	32dd\	.
.	32cc#X\JJJ	.
8A\J 8g	32bn\LLL	.
.	32cc#\	.
.	32dd\	.
.	32ee\JJJ	.
8D\L 8A 8f#	32dd\LLL	.
.	32ee\	.
.	32dd\	.
.	32cc#\JJJ	.
8A\J 8g	32b\LLL	.
.	32cc#\	.
.	32dd\	.
.	32ee\JJJ	.
=38	=38	=38
8D\ 8A 8f#	32dd\LLL	.
.	32ee-X\	.
.	32dd\	.
.	32ee-\JJJ	.
8r	32dd\LLL	.
.	32ee-\	.
.	32dd\	.
.	32ee-\JJJ	.
4r	32dd\LLL	.
.	32ee-\	.
.	32dd\	.
.	32ee-\JJJ	.
.	32dd\LLL	.
.	32ee-\	.
.	32dd\	.
.	32ee-\JJJ)	]]
*clefG2	*	*
!!LO:LB:g=original
=39	=39	=39
*	*^	*
(32a-X/LLL	(32dd/LLL	16cc\LL	mf
32b-X/	32ee-X/	.	.
32a-/	32dd/	16cc\	.
32g/JJJ	32ee-/JJJ	.	.
32fn/LLL	32ddn/LLL	16dd-X\	.
32g/	32ee-/	.	.
32a-/	32dd-/	16dd-\JJ	.
32b-/JJJ	32ee-/JJJ	.	.
32a-/LLL	32dd-/LLL	16cc\LL	.
32b-/	32ee-/	.	.
32a-/	32dd-/	16cc\	.
32g/JJJ	32ee-/JJJ	.	.
32f/LLL	32ddn/LLL	16dd-X\	.
32g/	32ee-/	.	.
32a-/	32dd-/	16dd-\JJ	.
32b-/JJJ	32ee-/JJJ	.	.
=40	=40	=40	=40
32a-X/LLL	32dd/LLL	16cc\LL	.
32b-X/	32ee-X/	.	.
32a-/	32dd/	16cc\	.
32g/JJJ	32ee-/JJJ	.	.
32fn/LLL	32ddn/LLL	16dd-X\	.
32g/	32ee-/	.	.
32a-/	32dd-/	16dd-\JJ	.
32b-/JJJ	32ee-/JJJ	.	.
32a-/LLL	32dd-/LLL	16cc\LL	.
32b-/	32ee-/	.	.
32a-/	32dd-/	16cc\	.
32g/JJJ	32ee-/JJJ	.	.
32f/LLL	32ddn/LLL	16dd-X\	.
32g/	32ee-/	.	.
32a-/	32dd-/	16dd-\JJ	.
32b-/JJJ	32ee-/JJJ)	.	.
=41	=41	=41	=41
8a-X/)	(32dd/LLL	8cc\	.
.	32ee-X/	.	.
.	32dd/	.	.
.	32ee-/JJJ	.	.
8r	32dd/LLL	8r	.
.	32ee-/	.	.
.	32dd/	.	.
.	32ee-/JJJ	.	.
4r	32dd/LLL	4r	.
.	32ee-/	.	.
.	32dd/	.	.
.	32ee-/JJJ	.	.
.	32dd/LLL	.	.
.	32ee-/	.	.
.	32dd/	.	.
.	32ee-/JJJ)	.	.
!!LO:PB:g=original
=42	=42	=42	=42
(32g/LLL	(32dd/LLL	16b\LL	pp
32an/	32een/	.	.
32g/	32dd/	16b\	.
32f#/JJJ	32ee/JJJ	.	.
32e/LLL	32dd/LLL	16cc\	.
32f#/	32ee/	.	.
32g/	32dd/	16cc\JJ	.
32a/JJJ	32ee/JJJ	.	.
32g/LLL	32dd/LLL	16b\LL	.
32a/	32ee/	.	.
32g/	32dd/	16b\	.
32f#/JJJ	32ee/JJJ	.	.
32e/LLL	32dd/LLL	16cc\	.
32f#/	32ee/	.	.
32g/	32dd/	16cc\JJ	.
32a/JJJ	32ee/JJJ	.	.
=43	=43	=43	=43
32g/LLL	32dd/LLL	16b\LL	.
32a/	32ee/	.	.
32g/	32dd/	16b\	.
32f#/JJJ	32ee/JJJ	.	.
32e/LLL	32dd/LLL	16cc\	.
32f#/	32ee/	.	.
32g/	32dd/	16cc\JJ	.
32a/JJJ	32ee/JJJ	.	.
32g/LLL	32dd/LLL	16b\LL	.
32a/	32ee/	.	.
32g/	32dd/	16b\	.
32f#/JJJ	32ee/JJJ	.	.
32e/LLL	32dd/LLL	16cc\	.
32f#/	32ee/	.	.
32g/	32dd/	16cc\JJ	.
32a/JJJ	32ee/JJJ)	.	.
=44	=44	=44	=44
8g/)	(32dd/LLL	8b\	.
.	32ee/	.	.
.	32dd/	.	.
.	32ee/JJJ	.	.
8r	32dd/LLL	8r	.
.	32ee/	.	.
.	32dd/	.	.
.	32ee/JJJ	.	.
4r	32dd/LLL	4r	.
.	32ee/	.	.
.	32dd/	.	.
.	32ee/JJJ	.	.
.	32dd/LLL	.	.
.	32ee/	.	.
.	32dd/	.	.
.	32ee/JJJ)	.	.
*clefF4	*	*	*
!!LO:LB:g=original
=45	=45	=45	=45
16FFn/LL 16C 16A	(32ffn/LLL	8cc\L	f
.	32gg/	.	.
16FF/ 16C 16A	32ff/	.	.
.	32ee/JJJ	.	.
16FF/ 16C 16G	32dd/LLL	8b-X\	.
.	32ee/	.	.
16FF/JJ 16C 16G	32ff/	.	.
.	32gg/JJJ)	.	.
16FF/LL 16C 16A	(32ff/LLL	8cc\	.
.	32gg/	.	.
16FF/ 16C 16A	32ff/	.	.
.	32ee/JJJ	.	.
16FF/ 16C 16G	32dd/LLL	8b-\J	.
.	32ee/	.	.
16FF/JJ 16C 16G	32ff/	.	.
.	32gg/JJJ)	.	.
*	*v	*v	*
=46	=46	=46
8FFn/ 8C 8A	(32ffn\LLL	.
.	32gg\	.
.	32ff\	.
.	32gg\JJJ	.
8r	32ff\LLL	.
.	32gg\	.
.	32ff\	.
.	32gg\JJJ	.
4r	32ff\LLL	.
.	32gg\	.
.	32ff\	.
.	32gg\JJJ	.
.	32ff\LLL	.
.	32gg\	.
.	32ff\	.
.	32gg\JJJ)	.
=47	=47	=47
*^	*	*
!	!	!	!LO:DY:rj
8D/ 8F#X 8c	8DD\	(32a\LLL 32ff#X	sff
.	.	32gg\	.
.	.	32ff#\	.
.	.	32gg\JJJ	.
8r	8ryy	32ff#\LLL	.
.	.	32gg\	.
.	.	32ff#\	.
.	.	32gg\JJJ)	.
*tremolo	*	*tremolo	*
!	!	!LO:TX:a:i:t=trillo	!
32ff#>\LLL	4ryy	32gg/LLL	<
32ff#>\	.	32gg/	.
32ff#>\	.	32gg/	.
32ff#>\	.	32gg/	.
32ff#>\	.	32gg/	.
32ff#>\	.	32gg/	.
32ff#>\	.	32gg/	.
32ff#>\JJJ	.	32gg/JJJ	.
*v	*v	*	*
=48	=48	=48
32ff#>\LLL	32gg/LLL	.
32ff#>\	32gg/	.
32ff#>\	32gg/	.
32ff#>\	32gg/	.
32ff#>\	32gg/	.
32ff#>\	32gg/	.
32ff#>\	32gg/	.
32ff#>\	32gg/	.
32ff#>\	32gg/	[
32ff#>\	32gg/	.
32ff#>\	32gg/	.
32ff#>\	32gg/	.
32ff#>\	32gg/	.
32ff#>\	32gg/	.
32ff#>\	32gg/	.
32ff#>\JJJ	32gg/JJJ	.
*Xtremolo	*Xtremolo	*
!!LO:LB:g=original
=49	=49	=49
*	*8va	*
N(32f#>\	32ryy	>
16.ryy	32gg/LLL	.
.	32gg#X/	.
.	32aa/JJJ	.
32gn>\	32ryy	]
16.ryy	32gg#X/LLL	p
.	32aa/	.
.	32aa#X/JJJ	.
32g#X>\	32ryy	.
16.ryy	32aan/LLL	.
.	32aa#X/	.
!	!	!LO:DY:t=poco a poco rinforzando
.	32bb/JJJ	rfz
32an>\	32ryy	.
16.ryy	32aa#X/LLL	.
.	32bb/	.
.	32ccc/JJJ	.
=50	=50	=50
32a#X>\	32ryy	.
16.ryy	32bb/LLL	.
.	32ccc/	.
.	32ccc#X/JJJ	.
32b>\	32ryy	.
16.ryy	32cccn/LLL	.
.	32ccc#X/	.
.	32ddd/JJJ	.
32ccn>\	32ryy	.
16.ryy	32ccc#X/LLL	.
.	32ddd/	.
.	32ddd#X/JJJ	.
32cc#X>\	32ryy	.
16.ryy	32dddn/LLL	.
.	32ddd#X/	.
.	32eee/JJJ	.
*	*X8va	*
!!LO:LB:g=original
=51	=51	=51
*	*8va	*
32ddn>\	32ryy	.
16.ryy	32ddd#X/LLL	.
.	32eee/	.
.	32fffn/JJJ	.
32dd#X>\	32ryy	.
16.ryy	32eee/LLL	.
.	32fff/	.
.	32fff#X/JJJ	.
32ee>\	32ryy	.
16.ryy	32fffn/LLL	.
.	32fff#X/	.
.	32ggg/JJJ	.
32ee#X>\	32ryy	.
16.ryy	32fff#/LLL	.
.	32ggg/	.
.	32ggg#X/JJJ	.
=52	=52	=52
32ff#>\	32ryy	.
16.ryy	32gggn/LLL	.
.	32ggg#X/	.
.	32aaa/JJJ	.
32ggn>\	32ryy	.
16ryy	32ggg#X/LLL	.
.	32aaa/	.
32ryy	32aaa#X/JJJ	.
4ryy	32gggn/LLL	.
.	32ggg#X/	.
.	32aaan/	.
.	32aaa#X/JJJ	.
.	32gggn/LLL	.
.	32ggg#X/	.
.	32aaan/	.
.	32aaa#X/JJJ	.
*	*X8va	*
!!LO:LB:g=original
=53	=53	=53
*	*8va	*
!	!	!LO:HP:t=dim._:ext=ud
2r	32gggn\LLL	>
.	32ggg#X\	.
.	32aaan\	.
.	32aaa#X\JJJ	.
.	32gggn\LLL	.
.	32ggg#X\	.
.	32aaan\	.
.	32aaa#X\JJJ	.
.	32gggn\LLL	.
.	32ggg#X\	.
.	32aaan\	.
.	32aaa#X\JJJ	.
.	32gggn\LLL	.
.	32ggg#X\	.
.	32aaan\	.
.	32aaa#X\JJJ	.
=54	=54	=54
2r	32gggn\LLL	.
.	32ggg#X\	.
.	32aaan\	.
.	32aaa#X\JJJ	.
.	32gggn\LLL	.
.	32ggg#X\	.
.	32aaan\	.
.	32aaa#X\JJJ	]
!	!LO:TX:b:i:t=poco rit.	!
.	32gggn\LLL	.
.	32ggg#X\	.
.	32aaan\	.
.	32aaa#X\JJJ	.
.	32gggn\LLL	.
.	32ggg#X\	.
.	32aaan\	.
.	32aaa#X\JJJN)	.
*	*X8va	*
!!LO:PB:g=original
=55	=55	=55
*	*8va	*
*^	*	*
8D'/L	8GG\L	(32bbb\LLL	pp
.	.	32dddd\	.
.	.	32bbb\	.
.	.	32aaa\JJJ	.
8E-X'/	8B\	32ggg\LLL	.
.	.	32fff#\	.
.	.	32ggg\	.
.	.	32aaa\JJJ	.
8D'/	8GG\	32bbb\LLL	.
.	.	32dddd\	.
.	.	32bbb\	.
.	.	32aaa\JJJ	.
8E-'/J	8B\J	32ggg\LLL	.
.	.	32fff#\	.
.	.	32ggg\	.
.	.	32aaa\JJJ	.
=56	=56	=56	=56
8D'/L	8GG\L	32bbb\LLL	.
.	.	32dddd\	.
.	.	32bbb\	.
.	.	32aaa\JJJ	.
8E-X'/	8B\	32ggg\LLL	.
.	.	32fff#\	.
.	.	32ggg\	.
.	.	32aaa\JJJ	.
8D'/	8GG\	32bbb\LLL	.
.	.	32dddd\	.
.	.	32bbb\	.
.	.	32aaa\JJJ	.
8E-'/J	8B\J	32ggg\LLL	.
.	.	32fff#\	.
.	.	32ggg\	.
.	.	32aaa\JJJ)	.
*v	*v	*	*
*	*X8va	*
!!LO:LB:g=original
=57	=57	=57
*	*8va	*
*^	*	*
(8D/L	[2GG\	(32bbb\LLL	.
.	.	32dddd\	.
.	.	32bbb\	.
.	.	32aaa\JJJ	.
8D#X/J	.	32ggg\LLL	.
.	.	32bbb\	.
.	.	32ggg\	.
.	.	32fff#\JJJ	.
4En/)	.	32eee\LLL	.
.	.	32ggg\	.
.	.	32eee\	.
.	.	32ddd\JJJ	.
.	.	32ccc\LLL	.
.	.	32eee\	.
.	.	32ccc\	.
.	.	32bb\JJJ	.
*v	*v	*	*
*	*X8va	*
=58	=58	=58
*^	*	*
(8E#X/L	2GG\]	32aa\LLL	.
.	.	32ccc\	.
.	.	32aa\	.
.	.	32gg\JJJ	.
8F#/	.	32ff#\LLL	.
.	.	32aa\	.
.	.	32ff#\	.
.	.	32ee\JJJ	.
8G/	.	32dd\LLL	.
.	.	32ff#\	.
.	.	32dd\	.
.	.	32cc\JJJ	.
8A/J	.	32b\LLL	.
.	.	32dd\	.
.	.	32b\	.
.	.	32a\JJJ)	.
*v	*v	*	*
!!LO:LB:g=original
=59	=59	=59
!	!	!LO:HP:t=cre_scen_do:ext=ud
8GG\L) 8D 8B	(>32g/LLL	<
.	32a/	.
.	32g/	.
.	32f#/JJJ	.
8D'\ 8c	32e/LLL	.
.	32f#/	.
.	32g/	.
.	32a/JJJ	.
8GG'\ 8D 8B	32g/LLL	.
.	32a/	.
.	32g/	.
.	32f#/JJJ	.
8D'\J 8c	32e/LLL	.
.	32f#/	.
.	32g/	.
.	32a/JJJ	.
=60	=60	=60
8GG\L 8D 8B	32g/LLL	.
.	32a/	.
.	32g/	.
.	32f#/JJJ	.
8D\ 8c	32e/LLL	.
.	32f#/	.
.	32g/	.
.	32a/JJJ	.
8GG\ 8D 8B	32g/LLL	.
.	32a/	.
.	32g/	.
.	32f#/JJJ	.
8AA\J 8c#X	32e/LLL	.
.	32f#/	.
.	32g/	.
.	32a/JJJ)	.
!!LO:LB:g=original
=61	=61	=61
8DD/L 8AA 8F#	(>32d/LLL	.
.	32e/	.
.	32d/	.
.	32c#X/JJJ	.
8AA/ 8G	32B/LLL	.
.	32c#/	.
.	32d/	.
.	32e/JJJ	.
8DD/ 8AA 8F#	32d/LLL	.
.	32e/	.
.	32d/	.
.	32c#/JJJ	.
8AA/J 8G	32B/LLL	.
.	32c#/	.
.	32d/	.
.	32e/JJJ	.
=62	=62	=62
8DD/L 8AA 8F#	32d/LLL	.
.	32e/	.
.	32d/	.
.	32c#X/JJJ	.
8AA/ 8G	32B/LLL	.
.	32c#/	.
.	32d/	.
.	32e/JJJ	.
8DD/ 8AA 8F#	32d/LLL	.
.	32e/	.
.	32d/	.
.	32c#/JJJ	.
8AA/J 8G	32B/LLL	.
.	32c#/	.
.	32d/	.
.	32e/JJJ)	[[
=63	=63	=63
16DD/ 16AA 16F#	(32d/LLL	f
.	32e/	.
16r	32d/	.
.	32c#X/JJJ	.
*clefG2	*	*
(32f#/LLL	32d/)	.
32g/	16.r	.
32f#/	.	.
32e#X/JJJ	.	.
32f#/)	(32a/LLL	.
16.r	32b/	.
.	32a/	.
.	32g/JJJ	.
(32dd\LLL	32f#/)	.
32ee\	16.r	.
32dd\	.	.
32cc#X\JJJ	.	.
!!LO:LB:g=original
=64	=64	=64
32dd\)	(32ff#\LLL	.
16.r	32gg\	.
.	32ff#\	.
.	32ee#X\JJJ	.
!	!	!LO:HP:t=dim.
(32aa\LLL	32ff#\)	>
32bb\	16.r	.
32aa\	.	.
32gg\JJJ	.	.
*	*8va	*
32ff#\)	(32ddd\LLL	.
16.r	32eee#\	.
.	32ddd\	.
.	32ccc#X\JJJ	.
*8va	*	*
(32fff#\LLL	32ddd\)	.
32ggg\	16.r	.
32fff#\	.	.
32eee#X\JJJ	.	.
=65	=65	=65
32fff#\)	(32aaa\LLL	.
16.r	32bbb\	.
.	32aaa\	.
.	32ggg\JJJ	.
(32dddd\LLL	32fff#\)	.
32eeee\	16.r	.
32dddd\	.	.
32cccc#X\JJJ)	.	.
*X8va	*	*
4r	(32dddd\LLL	.
.	32eeee\	.
.	32dddd\	.
.	32cccc#X\JJJ	.
.	32dddd\LLL	.
.	32eeee\	.
.	32dddd\	.
.	32cccc#\JJJ	.
=66	=66	=66
2r	32dddd\LLL	.
.	32eeee\	.
.	32dddd\	.
.	32cccc#X\JJJ	.
.	32dddd\LLL	.
.	32eeee\	.
.	32dddd\	.
.	32cccc#\JJJ	.
.	32dddd\LLL	.
.	32eeee\	.
.	32dddd\	.
.	32cccc#\JJJ	.
.	32dddd\LLL	.
.	32eeee\	.
.	32dddd\	.
.	32ccccn\JJJ)	.
*	*X8va	*
*clefF4	*	*
!!LO:PB:g=original
=67	=67	=67
*	*8va	*
*^	*	*
8D'/L	8GG\L	(32bbb\LLL	pp
.	.	32dddd\	.
.	.	32bbb\	.
.	.	32aaa\JJJ	.
8E-X'/	8B\	32ggg\LLL	.
.	.	32fff#\	.
.	.	32ggg\	.
.	.	32aaa\JJJ	.
8D'/	8GG\	32bbb\LLL	.
.	.	32dddd\	.
.	.	32bbb\	.
.	.	32aaa\JJJ	.
8E-'/J	8B\J	32ggg\LLL	.
.	.	32fff#\	.
.	.	32ggg\	.
.	.	32aaa\JJJ	.
=68	=68	=68	=68
8D'/L	8GG\L	32bbb\LLL	.
.	.	32dddd\	.
.	.	32bbb\	.
.	.	32aaa\JJJ	.
8E-X'/	8B\	32ggg\LLL	.
.	.	32fff#\	.
.	.	32ggg\	.
.	.	32aaa\JJJ	.
8D'/	8GG\	32bbb\LLL	.
.	.	32dddd\	.
.	.	32bbb\	.
.	.	32aaa\JJJ	.
8E-'/J	8B\J	32ggg\LLL	.
.	.	32fff#\	.
.	.	32ggg\	.
.	.	32aaa\JJJ	.
=69	=69	=69	=69
(8D/L	[2GG\	32bbb\LLL	.
.	.	32dddd\	.
.	.	32bbb\	.
.	.	32aaa\JJJ	.
8D#X/J	.	32ggg\LLL	.
.	.	32bbb\	.
.	.	32ggg\	.
.	.	32fff#\JJJ	.
4En/)	.	32eee\LLL	.
.	.	32ggg\	.
.	.	32eee\	.
.	.	32ddd\JJJ	.
.	.	32ccc\LLL	.
.	.	32eee\	.
.	.	32ccc\	.
.	.	32bb\JJJ	.
*v	*v	*	*
*	*X8va	*
!!LO:LB:g=original
=70	=70	=70
*^	*	*
(8E#X/L	2GG\]	32aa\LLL	.
.	.	32ccc\	.
.	.	32aa\	.
.	.	32gg\JJJ	.
8F#/	.	32ff#\LLL	.
.	.	32aa\	.
.	.	32ff#\	.
.	.	32ee\JJJ	.
8G/	.	32dd\LLL	.
.	.	32ff#\	.
.	.	32dd\	.
.	.	32cc\JJJ	.
8A/J	.	32b\LLL	.
.	.	32dd\	.
.	.	32b\	.
.	.	32a\JJJ)	.
*v	*v	*	*
=71	=71	=71
8GG\L) 8D 8B	(>32g/LLL	.
.	32a/	.
.	32g/	.
.	32f#/JJJ	.
8D'\ 8c	32e/LLL	.
.	32f#/	.
.	32g/	.
.	32a/JJJ	.
8GG'\ 8D 8B	32g/LLL	.
.	32a/	.
.	32g/	.
.	32f#/JJJ	.
!	!	!LO:HP:t=cresc._:ext=ud
8D'\J 8c	32e/LLL	<
.	32f#/	.
.	32g/	.
.	32a/JJJ	.
=72	=72	=72
8GG'\L 8D 8B	32g/LLL	.
.	32a/	.
.	32g/	.
.	32f#/JJJ	.
8D'\ 8c	32e/LLL	.
.	32f#/	.
.	32g/	.
.	32a/JJJ	.
8GG'\ 8D 8B	32g/LLL	.
.	32a/	.
.	32g/	.
.	32f#/JJJ	.
8D'\J 8c	32e/LLL	.
.	32f#/	.
.	32g/	.
.	32a/JJJ)	.
!!LO:LB:g=original
=73	=73	=73
8F#\L 8G 8B 8d	(>32b/LLL	.
.	32cc/	.
.	32b/	.
.	32a/JJJ	.
8E\ 8G 8B 8e	32g/LLL	.
.	32a/	.
.	32b/	.
.	32cc/JJJ	.
8F#\ 8G 8B 8d	32b/LLL	.
.	32cc/	.
.	32b/	.
.	32a/JJJ	.
8E\J 8G 8B 8e	32g/LLL	.
.	32a/	.
.	32b/	.
.	32cc/JJJ	.
=74	=74	=74
8F#\L 8G 8B 8d	32b/LLL	.
.	32cc/	.
.	32b/	.
.	32a/JJJ	.
8E\ 8G 8B 8e	32g/LLL	.
.	32a/	.
.	32b/	.
.	32cc/JJJ	.
8F#\ 8G 8B 8d	32b/LLL	.
.	32cc/	.
.	32b/	.
.	32a/JJJ	.
8E\J 8G 8B 8e	32g/LLL	.
.	32a/	.
.	32b/	.
.	32cc/JJJ)	[[
=75	=75	=75
*	*^	*
!	!	!	!LO:HP:t=sempre cresc._:ext=s:ext=ud
8A\L 8B 8d	(32dd/LLL	8f#\L	<
.	32ee/	.	.
.	32dd/	.	.
.	32cc/JJJ	.	.
8G\ 8B 8d	32b/LLL	8g\	.
.	32cc/	.	.
.	32dd/	.	.
.	32ee/JJJ	.	.
8A\ 8B 8d	32dd/LLL	8f#\	.
.	32ee/	.	.
.	32dd/	.	.
.	32cc/JJJ	.	.
8G\J 8B 8d	32b/LLL	8g\J	.
.	32cc/	.	.
.	32dd/	.	.
.	32ee/JJJ)	.	.
!!LO:LB:g=original
=76	=76	=76	=76
8A\L 8B 8d	(32dd/LLL	8f#\L	.
.	32ee/	.	.
.	32dd/	.	.
.	32cc/JJJ	.	.
8G\ 8B 8d	32b/LLL	8g\	.
.	32cc/	.	.
.	32dd/	.	.
.	32ee/JJJ	.	.
8A\ 8B 8d	32dd/LLL	8f#\	.
.	32ee/	.	.
.	32dd/	.	.
.	32cc/JJJ	.	.
8G\J 8B 8d	32b/LLL	8g\J	.
.	32cc/	.	.
.	32dd/	.	.
.	32ee/JJJ)	.	.
=77	=77	=77	=77
8G\L 8A	(32cc/LLL	8e\L	.
.	32dd/	.	.
.	32cc/	.	.
.	32b/JJJ	.	.
8D\ 8c	32a/LLL	8f#\	.
.	32b/	.	.
.	32cc/	.	.
.	32dd/JJJ	.	.
8G\ 8A	32cc/LLL	8e\	.
.	32dd/	.	.
.	32cc/	.	.
.	32b/JJJ	.	.
8D\J 8c	32a/LLL	8f#\J	.
.	32b/	.	.
.	32cc/	.	.
.	32dd/JJJ)	.	.
=78	=78	=78	=78
8F#\L 8G	(32b/LLL	8d\L	.
.	32cc/	.	.
.	32b/	.	.
.	32a/JJJ	.	.
8C\ 8B	32g/LLL	8e\	.
.	32a/	.	.
.	32b/	.	.
.	32cc/JJJ	.	.
8F#\ 8G	32b/LLL	8d\	.
.	32cc/	.	.
.	32b/	.	.
.	32a/JJJ	.	.
8C\J 8B	32g/LLL	8e\J	.
.	32a/	.	.
.	32b/	.	.
.	32cc/JJJ)	.	.
!!LO:LB:g=original
=79	=79	=79	=79
8E\L 8F#	(32a/LLL	8c\L	.
.	32b/	.	.
.	32a/	.	.
.	32g/JJJ	.	.
8BB\ 8A	32f#/LLL	8d\	.
.	32g/	.	.
.	32a/	.	.
.	32b/JJJ	.	.
8E\ 8F#	32a/LLL	8c\	.
.	32b/	.	.
.	32a/	.	.
.	32g/JJJ	.	.
8BB\J 8A	32f#/LLL	8d\J	.
.	32g/	.	.
.	32a/	.	.
.	32b/JJJ)	.	.
=80	=80	=80	=80
8D\L 8E	(32g/LLL	8B\L	.
.	32a/	.	.
.	32g/	.	.
.	32f#/JJJ	.	.
!	!LO:TX:b:i:t=rit.	!	!
8AA\ 8G	32e/LLL	8c#X\	.
.	32f#/	.	.
.	32g/	.	.
.	32a/JJJ	.	.
8D\ 8E	32g/LLL	8B\	.
.	32a/	.	.
.	32g/	.	.
.	32f#/JJJ	.	.
8AA\J 8G	32e/LLL	8c#\J	.
.	32f#/	.	.
.	32g/	.	.
.	32a/JJJ)	.	[
*	*v	*v	*
=81	=81	=81
8DDD^/L 8DD	(32b/LLL	ff
.	32dd/	.
!	!LO:TX:b:i:t=a tempo	!
.	32b/	.
.	32a/JJJ	.
8DDD#X^/J 8DD#X	32g/LLL	.
.	32b/	.
.	32g/	.
.	32f#/JJJ	.
4EEE^/ 4EE	32e/LLL	.
.	32g/	.
.	32e/	.
.	32d/JJJ	.
.	32c/LLL	.
.	32e/	.
.	32c/	.
.	32B/JJJ	.
*	*clefF4	*
!!LO:PB:g=original
=82	=82	=82
8EEE#X^/L 8EE#X	32A\LLL	.
.	32c\	.
.	32A\	.
.	32G\JJJ	.
8FFF#^/J 8FF#	32F#\LLL	.
.	32A\	.
.	32F#\	.
.	32E\JJJ	.
8GGG^/L 8GG	32D\LLL	.
.	32F#\	.
.	32D\	.
.	32C\JJJ	.
8AAA^/J 8AA	32BB/LLL	.
.	32D/	.
.	32BB/	.
.	32AA/JJJ)	.
=83	=83	=83
16BBB/LL	(16GG/LL	.
(32CC#X/L	32AA#X/L	.
32EE/JJJ	32C#X/JJJ	.
32GG/LLL	32E\LLL	.
32AA#X/	32G\	.
32C#X/	32A#X\	.
32E/JJJ	32c#X\JJJ	.
*	*clefG2	*
32G\LLL	32e/LLL	.
32A#X\	32g/	.
32c#X\	32a#X/	.
32e\JJJ	32cc#X/JJJ	.
*clefG2	*	*
32g\LLL	32ee\LLL	.
32a#X\	32gg\	.
32cc#X\	32aa#X\	.
32ee\JJJ)	32ccc#X\JJJ)	.
!!LO:LB:g=original
=84	=84	=84
*	*8va	*
(32gg\LLL	(32eee\LLL	.
32aan\	32fff#\	.
32gg\	32eee\	.
32ff#\JJJ	32ddd\JJJ	.
32ee\LLL	32ccc#X\LLL	.
32ff#\	32ddd\	.
32gg\	32eee\	.
32aa\JJJ	32fff#\JJJ	.
32gg\LLL	32eee\LLL	.
32aa\	32fff#\	.
32gg\	32eee\	.
32ff#\JJJ	32ddd\JJJ	.
32ee\LLL	32ccc#\LLL	.
32ff#\	32ddd\	.
32gg\	32eee\	.
32aa\JJJ)	32fff#\JJJ)	.
=85	=85	=85
(32gg\LLL	(32eee\LLL	.
32aa\	32fff#\	.
32gg\	32eee\	.
32ff#\JJJ	32ddd\JJJ	.
32ee\LLL	32ccc#X\LLL	.
32ff#\	32ddd\	.
32gg\	32eee\	.
32aa\JJJ	32fff#\JJJ	.
32gg\LLL	32eee\LLL	.
32aa\	32fff#\	.
32gg\	32eee\	.
32ff#\JJJ	32ddd\JJJ	.
32ee\LLL	32ccc#\LLL	.
32ff#\	32ddd\	.
32gg\	32eee\	.
32aa\JJJ)	32fff#\JJJ)	.
*	*X8va	*
!!LO:LB:g=original
=86	=86	=86
*	*8va	*
(32bb-X\LLL	(32ggg\LLL	.
32ccc\	32aaa\	.
32bb-\	32ggg\	.
32aa\JJJ	32fff#\JJJ	.
32gg\LLL	32eee\LLL	.
32aa\	32fff#\	.
32bb-\	32ggg\	.
32ccc\JJJ	32aaa\JJJ	.
32bb-\LLL	32ggg\LLL	.
32ccc\	32aaa\	.
32bb-\	32ggg\	.
32aa\JJJ	32fff#\JJJ	.
32gg\LLL	32eee\LLL	.
32aa\	32fff#\	.
32bb-\	32ggg\	.
32ccc\JJJ)	32aaa\JJJ)	.
=87	=87	=87
(32bb-X\LLL	(32ggg\LLL	.
32ccc\	32aaa\	.
32bb-\	32ggg\	.
32aa\JJJ	32fff#\JJJ	.
32gg\LLL	32eee\LLL	.
32aa\	32fff#\	.
32bb-\	32ggg\	.
32ccc\JJJ	32aaa\JJJ	.
32bb-\LLL	32ggg\LLL	.
32ccc\	32aaa\	.
32bb-\	32ggg\	.
32aa\JJJ	32fff#\JJJ	.
32gg\LLL	32eee\LLL	.
32aa\	32fff#\	.
32bb-\	32ggg\	.
64ccc\JJJk)	64aaa\JJJk)	.
64r;<	64r;<	.
*	*X8va	*
*clefF4	*	*
!!LO:LB:g=original
=88	=88	=88
*	*8va	*
(8qDDD/ 8qDD	.	.
8D^>/L)	(32bbbn\LLL	ff
.	32dddd\	.
.	32bbb\	.
.	32aaa\JJJ	.
8D#X^>/J	32ggg\LLL	.
.	32bbb\	.
.	32ggg\	.
.	32fff#\JJJ	.
4E^>/	32eee\LLL	.
.	32ggg\	.
.	32eee\	.
.	32ddd\JJJ	.
.	32ccc\LLL	.
.	32eee\	.
.	32ccc\	.
.	32bb\JJJ	.
*	*X8va	*
=89	=89	=89
*^	*	*
8E#X^/L	2DD\	32aa\LLL	.
.	.	32ccc\	.
.	.	32aa\	.
.	.	32gg\JJJ	.
8F#^/	.	32ff#\LLL	.
.	.	32aa\	.
.	.	32ff#\	.
.	.	32ee\JJJ	.
8G^/	.	32dd\LLL	.
.	.	32ff#\	.
.	.	32dd\	.
.	.	32cc\JJJ	.
8A^/J	.	32b\LLL	.
.	.	32dd\	.
.	.	32b\	.
.	.	32a\JJJ)	.
*v	*v	*	*
!!LO:LB:g=original
=90	=90	=90
8GG'\L 8D 8B	(>32g/LLL	.
.	32a/	.
.	32g/	.
.	32f#/JJJ	.
8D'\ 8c	32e/LLL	.
.	32f#/	.
.	32g/	.
.	32a/JJJ	.
8GG'\ 8D 8B	32g/LLL	.
.	32a/	.
.	32g/	.
.	32f#/JJJ	.
8D'\J 8c	32e/LLL	.
.	32f#/	.
.	32g/	.
.	32a/JJJ	.
=91	=91	=91
!	!	!LO:HP:t=poco a poco di_mi_nuen_do_:ext=s:ext=ud
8GG'\L 8D 8B	32g/LLL	>
.	32a/	.
.	32g/	.
.	32f#/JJJ	.
8D'\ 8c	32e/LLL	.
.	32f#/	.
.	32g/	.
.	32a/JJJ	.
8GG'\ 8D 8B	32g/LLL	.
.	32a/	.
.	32g/	.
.	32f#/JJJ	.
8D'\J 8c	32e/LLL	.
.	32f#/	.
.	32g/	.
.	32a/JJJ)	.
!!LO:PB:g=original
=92	=92	=92
8GG\L 8D 8B	(32g/LLL	.
.	32a/	.
.	32g/	.
.	32f#/JJJ	.
8D\ 8c	32e/LLL	.
.	32f#/	.
.	32g/	.
.	32cc/JJJ	.
8GG\ 8D 8B	32b\LLL	.
.	32cc\	.
.	32b\	.
.	32a\JJJ	.
8D\J 8c	32g\LLL	.
.	32a\	.
.	32b\	.
.	32ee\JJJ	.
=93	=93	=93
8GG\L 8D 8B	32dd\LLL	.
.	32ee\	.
.	32dd\	.
.	32cc\JJJ	.
8D\ 8c	32b\LLL	.
.	32cc\	.
.	32dd\	.
.	32aa\JJJ	.
8GG\ 8D 8B	32gg\LLL	.
.	32aa\	.
.	32gg\	.
.	32ff#\JJJ	.
8D\J 8c	32ee\LLL	.
.	32ff#\	.
.	32gg\	.
.	32ccc\JJJ)	.
!!LO:LB:g=original
=94	=94	=94
8GG\L 8D 8B	(32bb\LLL	.
.	32ccc\	.
.	32bb\	.
.	32aa\JJJ	.
8D\ 8c	32gg\LLL	.
.	32aa\	.
.	32bb\	.
.	32eee\JJJ	.
8GG\ 8D 8B	32ddd\LLL	.
.	32eee\	.
.	32ddd\	.
.	32ccc\JJJ	.
8D\J 8c	32bb\LLL	.
.	32ccc\	.
.	32ddd\	.
.	32aaa\JJJ	.
=95	=95	=95
*	*8va	*
8GG\L 8D 8B	32ggg\LLL	.
.	32aaa\	.
.	32ggg\	.
.	32fff#\JJJ	.
8D\ 8c	32eee\LLL	.
.	32fff#\	.
.	32ggg\	.
.	32aaa\JJJ	.
8GG\ 8D 8B	32ggg\LLL	.
.	32aaa\	.
.	32ggg\	.
.	32fff#\JJJ	.
8D\J 8c	32eee\LLL	.
.	32fff#\	.
.	32ggg\	.
.	32aaa\JJJ)	]]
*	*X8va	*
!!LO:LB:g=original
=96	=96	=96
*	*8va	*
8GG'\L 8D 8B	(32ggg\LLL	.
.	32aaa\	.
.	32ggg\	.
.	32fff#\JJJ	.
8c'\	32eee\LLL	.
.	32fff#\	.
.	32ggg\	.
.	32aaa\JJJ	.
8G'\ 8B	32ggg\LLL	.
.	32aaa\	.
.	32ggg\	.
.	32fff#\JJJ	.
8e'\J	32eee\LLL	.
.	32fff#\	.
.	32ggg\	.
.	32aaa\JJJ	.
=97	=97	=97
8G'\L 8B 8d	32ggg\LLL	.
.	32aaa\	.
.	32ggg\	.
.	32fff#\JJJ	.
*clefG2	*	*
8a'\J	32eee\LLL	.
.	32fff#\	.
.	32ggg\	.
.	32aaa\JJJ	.
8B'/L 8d 8g	32ggg\LLL	.
.	32aaa\	.
.	32ggg\	.
.	32fff#\JJJ	.
8cc'/J	32eee\LLL	.
.	32fff#\	.
.	32ggg\	.
.	32aaa\JJJ)	.
*	*X8va	*
!!LO:LB:g=original
=98	=98	=98
*	*8va	*
8d'\L 8g 8b	(32ggg\LLL	.
.	32aaa\	.
.	32ggg\	.
.	32fff#\JJJ	.
8ee'\	32eee\LLL	.
.	32fff#\	.
.	32ggg\	.
.	32aaa\JJJ	.
8g'\ 8b 8dd	32ggg\LLL	.
.	32aaa\	.
.	32ggg\	.
.	32fff#\JJJ	.
8aa'\J	32eee\LLL	.
.	32fff#\	.
.	32ggg\	.
.	32aaa\JJJ	.
=99	=99	=99
8b'\ 8dd 8gg	32ggg\LLL	pp
.	32aaa\	.
.	32ggg\	.
.	32fff#\JJJ	.
8r	32eee/LLL	.
.	32fff#/	.
.	32ggg/	.
.	32aaa/JJJ	.
!LO:TX:a:i:t=m.g.	!	!
32gg>\	32ryy	.
32ryy	32aaa/LLL	.
16ryy	32ggg/	.
.	32fff#/JJJ	.
8ryy	32eee/LLL	.
.	32fff#/	.
.	32ggg/	.
.	32aaa/JJJ)	.
*	*X8va	*
!!LO:LB:g=original
=100	=100	=100
*	*8va	*
32gg>\	32ryy	.
32ryy	(>32aaa/LLL	.
16ryy	32ggg/	.
.	32fff#/JJJ	.
8ryy	32eee/LLL	.
.	32fff#/	.
.	32ggg/	.
.	32aaa/JJJ	.
32gg>\	32ryy	.
32ryy	32aaa/LLL	.
16ryy	32ggg/	.
.	32fff#/JJJ	.
8ryy	32eee/LLL	.
.	32fff#/	.
.	32ggg/	.
.	32aaa/JJJ)	.
=101	=101	=101
32gg>\	32ryy	.
32ryy	32aaa/LLL	.
16ryy	32ggg/	.
.	32aaa/JJJ	.
8ryy	32ggg/LLL	.
.	32aaa/	.
.	32ggg/	.
.	32aaa/JJJ	.
4ryy	4gggT/	.
=102	=102	=102
2r	2gggT\	.
.	(16qqfff#/LL	.
.	16qqggg/JJ	.
=103	=103	=103
2r	8gggg'\)	.
*	*X8va	*
.	8r	.
.	4r	.
*clefF4	*	*
=104	=104	=104
(2E-X\ 2B-X	(2e-X/ 2g	pp
=105	=105	=105
2BBn\) 2Bn	2d/) 2f#	.
=106	=106	=106
*^	*	*
2D/ 2G 2B 2d	2GGG\ 2GG	2g\ 2b 2dd 2gg	.
*v	*v	*	*
==	==	==
*-	*-	*-
!!!system-decoration: {(s1,s2)}
!!!RDF**kern: < = below
!!!RDF**kern: > = above
!!!RDF**kern: N = linked
!!!ENC: Andrzej Gręziak
!!!END: 2023-10-20
!!!EED: Marta Chmielewska
!!!EEV: 2023-11-22
